X:16
%%etbk:tnset id:6,pos:2,rep:3x,ant:
%%etbk:wsite http://www.thesession.org/tunes/display/200
%%etbk:pldat 2016-09-15T18:43,2016-09-12T19:04,2016-09-10T16:11,2016-09-08T19:10,2016-09-07T15:17,2016-09-06T16:05,2016-08-05T17:11,2016-08-03T16:25,2016-08-02T17:45,2016-07-31T16:28,2016-07-28T18:56,2016-07-25T18:09,2016-07-23T16:50,2016-07-22T17:17,2015-03-27T18:38,2015-03-24T16:43,2014-12-30T17:55,2014-12-13T16:56,2014-11-19T16:35,2014-09-30T14:44,2014-09-13T13:50,2014-06-03T17:28,2014-05-06T17:07,2014-05-05T19:00,2014-04-28T18:00,2014-04-12T13:15,2014-04-02T16:49,2014-03-23T15:25,2014-03-18T17:42,2014-03-16T17:17,2014-03-15T17:15,2014-02-16T13:29,2013-12-28T15:34,2013-12-27T17:25,2013-12-11T17:00,2013-12-09T18:45,2013-12-07T17:59,2013-12-04T18:35,2013-12-03T19:05,2013-12-02T18:02,2013-11-26T15:32,2013-11-23T15:08,2013-10-05T16:34,2013-09-29T15:10,2013-09-27T17:23,2013-09-02T19:05,2013-09-01T16:50,2013-05-22T15:46
T: Splendid Isolation
Z: Piano Box Version by Martin Fleischmann
H: Created 2013-02-19 /  Last Modified 2013-12-04
M: 4/4
L: 1/8
R: Reel
K: Gdor
|:!1!F!2!GGF !2!G!5!d!4!c!3!A|!2!G2AG !1!FGA!4!c | !5!d!3!A!4!c!3!A !1!GAB!4!c | !1!d!3!ggf ggga|
!5!bgag !2!f!1!ddd | !4!f3!5!g !4!f!3!d!2!c!1!A | !2!G2AG !1!FGA!4!c|!5!d!3!AcA !2!G4:|
|:!4!g2!5!ag !3!f!1!d !2!d!1!d | !5!gf!3!d!2!c !1!A!2!cdc | !1!A2!2!GG !3!A!4!cdc | !3!A!2!GGG !1!F4|
!1!FGGF GdcA | !2!G2AG !1!FGA!4!c | !1!d2 !4!g!4!g !3!fgag | !3!f!2!d!1!c!2!A !1!G4:|


